flaticon/files-and-folders/files-3.svg

<svg xmlns="http://www.w3.org/2000/svg" width="32" height="32" viewBox="0 0 24 24">
    <path d="M 20.792969 5.117188 C 20.769531 5 20.707031 4.90625 20.609375 4.851562 L 15.949219 0.191406 C 15.894531 0.09375 15.800781 0.0273438 15.683594 0.0078125 C 15.648438 0 15.613281 0 15.578125 0 L 4.398438 0 C 3.71875 0 3.199219 0.523438 3.199219 1.203125 L 3.199219 22.800781 C 3.199219 23.480469 3.71875 24 4.398438 24 L 19.597656 24 C 20.277344 24 20.796875 23.480469 20.796875 22.800781 L 20.796875 5.222656 C 20.800781 5.1875 20.800781 5.152344 20.792969 5.117188 Z M 19.4375 4.800781 L 16.398438 4.800781 C 16.160156 4.800781 16 4.640625 16 4.402344 L 16 1.363281 Z M 20 22.800781 C 20 23.039062 19.839844 23.199219 19.597656 23.199219 L 4.398438 23.199219 C 4.160156 23.199219 4 23.039062 4 22.800781 L 4 1.203125 C 4 1 4.160156 0.800781 4.398438 0.800781 L 15.199219 0.800781 L 15.199219 4.402344 C 15.199219 5.082031 15.71875 5.601562 16.398438 5.601562 L 20 5.601562 Z M 20 22.800781"/>
    <path d="M5.839844 12.402344C6.078125 12.480469 6.28125 12.359375 6.359375 12.160156L6.816406 10.800781 8.390625 10.800781 8.839844 12.121094C8.878906 12.28125 9.039062 12.402344 9.199219 12.402344 9.238281 12.402344 9.28125 12.402344 9.320312 12.402344 9.519531 12.320312 9.640625 12.082031 9.558594 11.878906L7.960938 7.082031C7.917969 6.921875 7.757812 6.800781 7.597656 6.800781 7.441406 6.800781 7.28125 6.921875 7.199219 7.082031L5.601562 11.878906C5.519531 12.121094 5.640625 12.320312 5.839844 12.402344zM7.597656 8.480469L8.117188 10 7.085938 10zM10.398438 7.199219C10.398438 7.441406 10.558594 7.601562 10.800781 7.601562L18 7.601562C18.238281 7.601562 18.398438 7.441406 18.398438 7.199219 18.398438 6.960938 18.238281 6.800781 18 6.800781L10.800781 6.800781C10.558594 6.800781 10.398438 6.960938 10.398438 7.199219zM18 9.199219L10.800781 9.199219C10.558594 9.199219 10.398438 9.359375 10.398438 9.601562 10.398438 9.839844 10.558594 10 10.800781 10L18 10C18.238281 10 18.398438 9.839844 18.398438 9.601562 18.398438 9.359375 18.238281 9.199219 18 9.199219zM18 11.601562L10.800781 11.601562C10.558594 11.601562 10.398438 11.761719 10.398438 12 10.398438 12.242188 10.558594 12.402344 10.800781 12.402344L18 12.402344C18.238281 12.402344 18.398438 12.242188 18.398438 12 18.398438 11.761719 18.238281 11.601562 18 11.601562zM18 14L6 14C5.757812 14 5.601562 14.160156 5.601562 14.402344 5.601562 14.640625 5.757812 14.800781 6 14.800781L18 14.800781C18.238281 14.800781 18.398438 14.640625 18.398438 14.402344 18.398438 14.160156 18.238281 14 18 14zM18 16.402344L6 16.402344C5.757812 16.402344 5.601562 16.558594 5.601562 16.800781 5.601562 17.039062 5.757812 17.199219 6 17.199219L18 17.199219C18.238281 17.199219 18.398438 17.039062 18.398438 16.800781 18.398438 16.558594 18.238281 16.402344 18 16.402344zM18 18.800781L6 18.800781C5.757812 18.800781 5.601562 18.960938 5.601562 19.199219 5.601562 19.441406 5.757812 19.601562 6 19.601562L18 19.601562C18.238281 19.601562 18.398438 19.441406 18.398438 19.199219 18.398438 18.960938 18.238281 18.800781 18 18.800781zM18 18.800781"/>
</svg>

<svg xmlns="http://www.w3.org/2000/svg" width="32" height="32" viewBox="0 0 24 24">
    <path d="M20.793 5.117a.378.378 0 0 0-.184-.265L15.95.192a.367.367 0 0 0-.265-.184C15.648 0 15.614 0 15.578 0H4.398C3.718 0 3.2.523 3.2 1.203v21.598c0 .68.52 1.199 1.2 1.199h15.199c.68 0 1.199-.52 1.199-1.2V5.224a.32.32 0 0 0-.004-.106zm-1.355-.316h-3.04c-.238 0-.398-.16-.398-.399V1.363zm.562 18c0 .238-.16.398-.402.398h-15.2c-.238 0-.398-.16-.398-.398V1.203a.4.4 0 0 1 .398-.402H15.2v3.601c0 .68.52 1.2 1.2 1.2H20zm0 0"/>
    <path d="M5.84 12.402a.403.403 0 0 0 .52-.242l.456-1.36h1.575l.449 1.321c.039.16.2.281.36.281h.12c.2-.082.32-.32.239-.523L7.96 7.082a.392.392 0 0 0-.363-.281c-.157 0-.317.12-.399.281l-1.597 4.797a.402.402 0 0 0 .238.523zM7.598 8.48l.52 1.52H7.085zm0 0M10.398 7.2c0 .241.16.402.403.402H18c.238 0 .398-.16.398-.403 0-.238-.16-.398-.398-.398h-7.2c-.241 0-.402.16-.402.398zm0 0M18 9.2h-7.2c-.241 0-.402.16-.402.402 0 .238.16.398.403.398H18c.238 0 .398-.16.398-.398 0-.243-.16-.403-.398-.403zm0 0M18 11.602h-7.2c-.241 0-.402.16-.402.398 0 .242.16.402.403.402H18c.238 0 .398-.16.398-.402 0-.238-.16-.398-.398-.398zm0 0M18 14H6c-.242 0-.398.16-.398.402 0 .239.156.399.398.399h12c.238 0 .398-.16.398-.399 0-.242-.16-.402-.398-.402zm0 0M18 16.402H6c-.242 0-.398.157-.398.399 0 .238.156.398.398.398h12c.238 0 .398-.16.398-.398 0-.242-.16-.399-.398-.399zm0 0M18 18.8H6c-.242 0-.398.16-.398.4 0 .241.156.402.398.402h12c.238 0 .398-.16.398-.403 0-.238-.16-.398-.398-.398zm0 0"/>
</svg>
